X: 1
T:Lough Gowna set No 2
R:double jig
M:6/8
L:1/8
K:G
F|GFG EBA|GFG EFG|FEF DdB|AFD D2f|!
gfe edB|BAF d3|G/2A/2BG FAF|1 GEE E2:|2 GEE E3|!
|:e2e Beg|bge gfe|d2d Adf|afd fed|!
e2e Beg|bge gfe|B/2c/2dB AFA|GEE E3:|!
